X:355
T: IETZ GANG I ANS BRUENNELE
N: E0203
O: Europa, Mitteleuropa, Deutschland, Schwaben, Remstal, Schorndorf
R: erzaehlendes Volks - Lied, Todes - Ahnung; betrogene Liebe
M: 3/4
L: 1/8
K: G
D2 | G3FGA | B3cB2 |
A2G2A2 | G2z2
G2 | B3ABc | d3ed2 |
c2B2c2 | B4z2 |
d6 | dcc2c2 | B2dBB2 |
BAA2A2 | Bd3z2 |
d6 | dcc2c2 | B2dBB2 |
BAA2A2 | G4

@@@ Tune index: 4005
